X: 34
T:Londonderry Hornpipe
% Nottingham Music Database
S:Variations by O'Neill
M:4/4
L:1/8
R:Hornpipe
K:D
AG|"D"F2Ad fdAF|"G"G2Bd gdBG|"D"F2Ad fdAF|"Em"E2GB "A7"e2/3d2/3c2/3AG|
"D"F2Ad fdAF|"G"G2Bd g2ag|"D"fafd "A7"Bgec|"D"d2f2 d2:|:

fg|"D"a2fd Adfa|"Em"g2ec "A7"Aceg|"D"a2fd Adgf|"G"e2/3f2/3d2/3"E7"c2/3d2/3B2/3 "A7"A2fg|
"D"a2fd Adfa|"Em"gece "A7"g2ag|"D"fafd "A7"Bgec|"D"d2f2 d2:|:

AG|"D"F2/3E2/3D2/3AD BDAD|"D"dcdf "A7"ecAG|
"D"F2/3E2/3D2/3AD BDAD|"G"EGFA "A7"GBAG|"D"F2/3E2/3D2/3AD BDAD|
"D"dcdf "A7"edeg|"D"f2/3a2/3f2/3df "A7"gece|"D"dfe2/3d2/3c2/3 d2:|:

f2/3g2/3^g2/3|"D"a^gab afdf|"Em"gfga "A7"gece|"D"a^gab afdf|
"G"e2/3f2/3d2/3"E7"c2/3d2/3B2/3 "A7"A2f2/3g2/3^g2/3|"D"a^gab afdf|"G"gfef "A7"gbag|
"D"dcdf "A7"edeg|"D"f2/3a2/3f2/3df "A7"gece:|:

fg|"D"a2/3a2/3a2/3fd Adfd|"Em"g2/3g2/3g2/3ec "A7"Acec|"D"fdge afbg|"A"ec"E7"dB "A7"A2fg|
"D"a2/3a2/3a2/3fd Adfd|"Em"g2/3g2/3g2/3ec "A7"A2ag|"D"fdAF "A7"Egec|"D"d2f2 d2:|:

FG|"D"AFAd fedc|"G"BGBe "Em"gfed|"A7"cAce agfe|"D"fcdB "A7"A2FG|
"D"AFAd fedc|"G"BGBe "Em"g2ag|"D"fafd "A7"Bgec|"D"d2f2 d2:|


